X:1
T:Title
%%score { ( 1 4 ) | ( 2 3 ) }
L:1/8
Q:1/4=90
M:2/4
K:Ab
V:1 treble nm="Grand Piano"
V:4 treble 
V:2 bass 
V:3 bass 
V:1
 [CE]c _c=c | [CE]c _c=c | [CE]c _c=c | [Gd]4 | Ed [=Ac]d | Ed [=Ac]d | [Bd]=d [ce]B | [Ac]4 | %8
w: Thoro~Harris * * *||||||||
 [CE]c _c=c | [CE]c _c=c | [Ec]=A [DB]c | [Fd]4 | [DF]d cd | [CE]c _c=c | [Ge]d cB | [CA]4 | %16
w: ||||||||
 [B,G]A [DB]c | [DB]2 [A,CA]2 | [DF]G [FA]d | [GB]4 | [Ac]d [ce]c | [DB]c [Fd]B | [CA]E [Ec]>B | %23
w: |||||||
 [CA]4 |] %24
w: |
V:2
 z E =DE | z E =DE | z E =DE | B,,2 E,2 | z[K:treble] B z B | z[K:treble] B z B | %6
 z[K:treble] _c z G | A,,2 E,2 | z E =DE | z E =DE | z C z E | B,,2 F,2 | z[K:treble] F EF | %13
 z E =DE | z F ED | [A,,E,A,]4 | z C z E | A,,2 E,2 | z E z[K:treble] B | E,,2 E,2 | %20
 z[K:treble] B z E | z E z D | z C z z/ D/ | A,,2 A,,,2 |] %24
V:3
 A,,2 [E,A,]2 | A,,2 [E,A,]2 | A,,2 [E,A,]2 | x4 | E,,2[K:treble] E,2 | E,,2[K:treble] E,2 | %6
 E,,2[K:treble] E,2 | x4 | A,,2 [E,A,]2 | A,,2 [E,A,]2 | F,,2 F,2 | x4 | D,2[K:treble] [F,A,]2 | %13
 A,,2 [E,A,]2 | E,,2 [E,G,]2 | x4 | E,2 E,,2 | x4 | D,2 D,,2[K:treble] | x4 | A,,2[K:treble] A,2 | %21
 D,2 B,,2 | E,2 E,,2 | x4 |] %24
V:4
 x4 | x4 | x4 | z2 B,2 | x4 | x4 | x4 | z2 A,2 | x4 | x4 | x4 | z2 B,2 | x4 | x4 | x4 | x4 | x4 | %17
 x4 | x4 | x4 | x4 | x4 | x4 | x4 |] %24

